;FLAVOR:Marlin
;TIME:3060
;Filament used: 0.501229m
;Layer height: 0.1
;MINX:31.049
;MINY:35.139
;MINZ:0.3
;MAXX:68.951
;MAXY:64.861
;MAXZ:42.5
;Generated with Cura_SteamEngine 4.5.0
M104 S200
M105
M109 S200
M82 ;absolute extrusion mode
G28 ;Home
G1 Z15.0 F6000 ;Move the platform down 15mm
;Prime the extruder
G92 E0
G1 F200 E3
G92 E0
G92 E0
G92 E0
G1 F1500 E-6.5
;LAYER_COUNT:423
;LAYER:0
M107
G0 F3600 X33.472 Y37.288 Z0.3
;TYPE:SKIRT
G1 F1500 E0
G1 F1800 X34.071 Y36.773 E0.01486
G1 X34.719 Y36.322 E0.02971
G1 X35.41 Y35.938 E0.04458
G1 X36.135 Y35.626 E0.05943
G1 X36.888 Y35.389 E0.07428
G1 X37.662 Y35.23 E0.08914
G1 X38.447 Y35.149 E0.10398
G1 X61.151 Y35.139 E0.53106
G1 X61.94 Y35.179 E0.54592
G1 X62.72 Y35.298 E0.56076
G1 X63.485 Y35.496 E0.57563
G1 X64.225 Y35.77 E0.59047
G1 X64.934 Y36.118 E0.60533
G1 X65.605 Y36.536 E0.6202
G1 X66.229 Y37.019 E0.63504
G1 X66.802 Y37.562 E0.64989
G1 X67.317 Y38.161 E0.66475
G1 X67.768 Y38.809 E0.6796
G1 X68.152 Y39.5 E0.69447
G1 X68.464 Y40.225 E0.70932
G1 X68.701 Y40.978 E0.72417
G1 X68.86 Y41.752 E0.73903
G1 X68.941 Y42.537 E0.75387
G1 X68.951 Y57.061 E1.02708
G1 X68.911 Y57.85 E1.04194
G1 X68.792 Y58.63 E1.05678
G1 X68.594 Y59.395 E1.07165
G1 X68.32 Y60.135 E1.08649
G1 X67.972 Y60.844 E1.10135
G1 X67.554 Y61.515 E1.11622
G1 X67.071 Y62.139 E1.13106
G1 X66.528 Y62.712 E1.14591
G1 X65.929 Y63.227 E1.16077
G1 X65.281 Y63.678 E1.17562
G1 X64.59 Y64.062 E1.19049
G1 X63.865 Y64.374 E1.20534
G1 X63.112 Y64.611 E1.22019
G1 X62.338 Y64.77 E1.23505
G1 X61.553 Y64.851 E1.24989
G1 X38.849 Y64.861 E1.67697
G1 X38.06 Y64.821 E1.69183
G1 X37.28 Y64.702 E1.70667
G1 X36.515 Y64.504 E1.72154
G1 X35.775 Y64.23 E1.73638
G1 X35.066 Y63.882 E1.75124
G1 X34.395 Y63.464 E1.76611
G1 X33.771 Y62.981 E1.78095
G1 X33.198 Y62.438 E1.7958
G1 X32.683 Y61.839 E1.81066
G1 X32.232 Y61.191 E1.82551
G1 X31.848 Y60.5 E1.84038
G1 X31.536 Y59.775 E1.85523
G1 X31.299 Y59.022 E1.87008
G1 X31.14 Y58.248 E1.88494
G1 X31.059 Y57.463 E1.89978
G1 X31.049 Y42.939 E2.17299
G1 X31.089 Y42.15 E2.18785
G1 X31.208 Y41.37 E2.20269
G1 X31.406 Y40.605 E2.21756
G1 X31.68 Y39.865 E2.2324
G1 X32.028 Y39.156 E2.24726
G1 X32.446 Y38.485 E2.26213
G1 X32.929 Y37.861 E2.27697
G1 X33.472 Y37.288 E2.29182
G0 F3600 X33.865 Y37.469
G1 F1800 X34.46 Y36.981 E2.30629
G1 X35.102 Y36.558 E2.32076
G1 X35.785 Y36.203 E2.33524
G1 X36.5 Y35.922 E2.34969
G1 X37.242 Y35.716 E2.36417
G1 X38 Y35.588 E2.37863
G1 X38.849 Y35.539 E2.39463
G1 X61.151 Y35.539 E2.81414
G1 X61.919 Y35.579 E2.82861
G1 X62.679 Y35.698 E2.84308
G1 X63.422 Y35.896 E2.85754
G1 X64.141 Y36.17 E2.87202
G1 X64.827 Y36.517 E2.88648
G1 X65.474 Y36.933 E2.90095
G1 X66.074 Y37.414 E2.91541
G1 X66.621 Y37.955 E2.92988
G1 X67.109 Y38.55 E2.94436
G1 X67.532 Y39.192 E2.95882
G1 X67.887 Y39.875 E2.9733
G1 X68.168 Y40.59 E2.98775
G1 X68.374 Y41.332 E3.00224
G1 X68.502 Y42.09 E3.0167
G1 X68.551 Y42.939 E3.03269
G1 X68.551 Y57.061 E3.29834
G1 X68.511 Y57.829 E3.3128
G1 X68.392 Y58.589 E3.32727
G1 X68.194 Y59.332 E3.34174
G1 X67.92 Y60.051 E3.35621
G1 X67.573 Y60.737 E3.37067
G1 X67.157 Y61.384 E3.38514
G1 X66.676 Y61.984 E3.3996
G1 X66.135 Y62.531 E3.41408
G1 X65.54 Y63.019 E3.42855
G1 X64.898 Y63.442 E3.44301
G1 X64.215 Y63.797 E3.45749
G1 X63.5 Y64.078 E3.47194
G1 X62.758 Y64.284 E3.48643
G1 X62 Y64.412 E3.50089
G1 X61.151 Y64.461 E3.51689
G1 X38.849 Y64.461 E3.9364
G1 X38.081 Y64.421 E3.95087
G1 X37.321 Y64.302 E3.96534
G1 X36.578 Y64.104 E3.9798
G1 X35.859 Y63.83 E3.99427
G1 X35.173 Y63.483 E4.00873
G1 X34.526 Y63.067 E4.0232
G1 X33.926 Y62.586 E4.03767
G1 X33.379 Y62.045 E4.05214
G1 X32.891 Y61.45 E4.06662
G1 X32.468 Y60.808 E4.08108
G1 X32.113 Y60.125 E4.09556
G1 X31.832 Y59.41 E4.11001
G1 X31.626 Y58.668 E4.12449
G1 X31.498 Y57.91 E4.13895
G1 X31.449 Y57.061 E4.15495
G1 X31.449 Y42.939 E4.42059
G1 X31.489 Y42.171 E4.43506
G1 X31.608 Y41.411 E4.44953
G1 X31.806 Y40.668 E4.46399
G1 X32.08 Y39.949 E4.47847
G1 X32.427 Y39.263 E4.49293
G1 X32.843 Y38.616 E4.5074
G1 X33.324 Y38.016 E4.52186
G1 X33.865 Y37.469 E4.53633
G0 F3600 X34.257 Y37.655
G1 F1800 X34.847 Y37.196 E4.5504
G1 X35.483 Y36.801 E4.56448
G1 X36.157 Y36.477 E4.57855
G1 X36.862 Y36.227 E4.59262
G1 X37.59 Y36.053 E4.6067
G1 X38.332 Y35.958 E4.62077
G1 X38.849 Y35.939 E4.6305
G1 X61.151 Y35.939 E5.05001
G1 X61.898 Y35.979 E5.06408
G1 X62.636 Y36.098 E5.07815
G1 X63.358 Y36.296 E5.09223
G1 X64.054 Y36.569 E5.10629
G1 X64.717 Y36.916 E5.12037
G1 X65.34 Y37.331 E5.13445
G1 X65.914 Y37.81 E5.14851
G1 X66.435 Y38.347 E5.16259
G1 X66.894 Y38.937 E5.17665
G1 X67.289 Y39.573 E5.19073
G1 X67.613 Y40.247 E5.2048
G1 X67.863 Y40.952 E5.21887
G1 X68.037 Y41.68 E5.23295
G1 X68.132 Y42.422 E5.24702
G1 X68.151 Y42.939 E5.25675
G1 X68.151 Y57.061 E5.52239
G1 X68.111 Y57.808 E5.53646
G1 X67.992 Y58.546 E5.55053
G1 X67.794 Y59.268 E5.56461
G1 X67.521 Y59.964 E5.57867
G1 X67.174 Y60.627 E5.59275
G1 X66.759 Y61.25 E5.60683
G1 X66.28 Y61.824 E5.62089
G1 X65.743 Y62.345 E5.63497
G1 X65.153 Y62.804 E5.64903
G1 X64.517 Y63.199 E5.66311
G1 X63.843 Y63.523 E5.67718
G1 X63.138 Y63.773 E5.69125
G1 X62.41 Y63.947 E5.70533
G1 X61.668 Y64.042 E5.7194
G1 X61.151 Y64.061 E5.72913
G1 X38.849 Y64.061 E6.14864
G1 X38.102 Y64.021 E6.16272
G1 X37.364 Y63.902 E6.17678
G1 X36.642 Y63.704 E6.19086
G1 X35.946 Y63.431 E6.20492
G1 X35.283 Y63.084 E6.219
G1 X34.66 Y62.669 E6.23308
G1 X34.086 Y62.19 E6.24714
G1 X33.565 Y61.653 E6.26122
G1 X33.106 Y61.063 E6.27528
G1 X32.711 Y60.427 E6.28936
G1 X32.387 Y59.753 E6.30343
G1 X32.137 Y59.048 E6.3175
G1 X31.963 Y58.32 E6.33158
G1 X31.868 Y57.578 E6.34565
G1 X31.849 Y57.061 E6.35538
G1 X31.849 Y42.939 E6.62102
G1 X31.889 Y42.192 E6.6351
G1 X32.008 Y41.454 E6.64916
G1 X32.206 Y40.732 E6.66324
G1 X32.479 Y40.036 E6.6773
G1 X32.826 Y39.373 E6.69138
G1 X33.241 Y38.75 E6.70546
G1 X33.72 Y38.176 E6.71952
G1 X34.257 Y37.655 E6.7336
G0 F3600 X34.114 Y38.341
G1 F1800 X34.648 Y37.848 E6.74727
G1 X35.233 Y37.418 E6.76093
G1 X35.862 Y37.054 E6.7746
G1 X36.527 Y36.761 E6.78827
G1 X37.22 Y36.543 E6.80193
G1 X37.932 Y36.403 E6.81558
G1 X38.849 Y36.339 E6.83287
G1 X61.151 Y36.339 E7.25239
G1 X61.876 Y36.379 E7.26604
G1 X62.593 Y36.498 E7.27972
G1 X63.292 Y36.696 E7.29338
G1 X63.965 Y36.969 E7.30704
G1 X64.604 Y37.314 E7.3207
G1 X65.201 Y37.728 E7.33437
G1 X65.749 Y38.204 E7.34802
G1 X66.242 Y38.738 E7.36169
G1 X66.672 Y39.323 E7.37535
G1 X67.036 Y39.952 E7.38902
G1 X67.329 Y40.617 E7.40269
G1 X67.547 Y41.31 E7.41636
G1 X67.687 Y42.022 E7.43001
G1 X67.751 Y42.939 E7.4473
G1 X67.751 Y57.061 E7.71294
G1 X67.711 Y57.786 E7.7266
G1 X67.592 Y58.503 E7.74027
G1 X67.394 Y59.202 E7.75393
G1 X67.121 Y59.875 E7.7676
G1 X66.776 Y60.514 E7.78126
G1 X66.362 Y61.111 E7.79492
G1 X65.886 Y61.659 E7.80858
G1 X65.352 Y62.152 E7.82225
G1 X64.767 Y62.582 E7.8359
G1 X64.138 Y62.946 E7.84957
G1 X63.473 Y63.239 E7.86324
G1 X62.78 Y63.457 E7.87691
G1 X62.068 Y63.597 E7.89056
G1 X61.151 Y63.661 E7.90785
G1 X38.849 Y63.661 E8.32736
G1 X38.124 Y63.621 E8.34102
G1 X37.407 Y63.502 E8.35469
G1 X36.708 Y63.304 E8.36836
G1 X36.035 Y63.031 E8.38202
G1 X35.396 Y62.686 E8.39568
G1 X34.799 Y62.272 E8.40935
G1 X34.251 Y61.796 E8.423
G1 X33.758 Y61.262 E8.43667
G1 X33.328 Y60.677 E8.45033
G1 X32.964 Y60.048 E8.464
G1 X32.671 Y59.383 E8.47767
G1 X32.453 Y58.69 E8.49133
G1 X32.313 Y57.978 E8.50498
G1 X32.249 Y57.061 E8.52227
G1 X32.249 Y42.939 E8.78792
G1 X32.289 Y42.214 E8.80158
G1 X32.408 Y41.497 E8.81525
G1 X32.606 Y40.798 E8.82891
G1 X32.879 Y40.125 E8.84257
G1 X33.224 Y39.486 E8.85623
G1 X33.638 Y38.889 E8.8699
G1 X34.114 Y38.341 E8.88355
G0 F3600 X34.508 Y38.512
G1 F1800 X35.038 Y38.048 E8.8968
G1 X35.617 Y37.648 E8.91004
G1 X36.238 Y37.316 E8.92329
G1 X36.892 Y37.056 E8.93653
G1 X37.572 Y36.872 E8.94978
G1 X38.268 Y36.766 E8.96302
G1 X38.849 Y36.739 E8.97396
G1 X61.151 Y36.739 E9.39347
G1 X61.854 Y36.779 E9.40672
G1 X62.548 Y36.898 E9.41997
G1 X63.223 Y37.096 E9.4332
G1 X63.872 Y37.368 E9.44643
G1 X64.486 Y37.713 E9.45968
G1 X65.057 Y38.124 E9.47292
G1 X65.578 Y38.598 E9.48617
G1 X66.042 Y39.128 E9.49942
G1 X66.442 Y39.707 E9.51265
G1 X66.774 Y40.328 E9.5259
G1 X67.034 Y40.982 E9.53914
G1 X67.218 Y41.662 E9.55239
G1 X67.324 Y42.358 E9.56563
G1 X67.351 Y42.939 E9.57657
G1 X67.351 Y57.061 E9.84222
G1 X67.311 Y57.764 E9.85546
G1 X67.192 Y58.458 E9.86871
G1 X66.994 Y59.133 E9.88194
G1 X66.722 Y59.782 E9.89517
G1 X66.377 Y60.396 E9.90842
G1 X65.966 Y60.967 E9.92166
G1 X65.492 Y61.488 E9.93491
G1 X64.962 Y61.952 E9.94816
G1 X64.383 Y62.352 E9.96139
G1 X63.762 Y62.684 E9.97464
G1 X63.108 Y62.944 E9.98788
G1 X62.428 Y63.128 E10.00113
G1 X61.732 Y63.234 E10.01437
G1 X61.151 Y63.261 E10.02531
G1 X38.849 Y63.261 E10.44483
G1 X38.146 Y63.221 E10.45807
G1 X37.452 Y63.102 E10.47132
G1 X36.777 Y62.904 E10.48455
G1 X36.128 Y62.632 E10.49779
G1 X35.514 Y62.287 E10.51103
G1 X34.943 Y61.876 E10.52427
G1 X34.422 Y61.402 E10.53752
G1 X33.958 Y60.872 E10.55077
G1 X33.558 Y60.293 E10.56401
G1 X33.226 Y59.672 E10.57725
G1 X32.966 Y59.018 E10.59049
G1 X32.782 Y58.338 E10.60374
G1 X32.676 Y57.642 E10.61698
G1 X32.649 Y57.061 E10.62792
G1 X32.649 Y42.939 E10.89357
G1 X32.689 Y42.236 E10.90681
G1 X32.808 Y41.542 E10.92006
G1 X33.006 Y40.867 E10.93329
G1 X33.278 Y40.218 E10.94653
G1 X33.623 Y39.604 E10.95977
G1 X34.034 Y39.033 E10.97301
G1 X34.508 Y38.512 E10.98626
G0 F3600 X34.902 Y38.69
G1 F1800 X35.427 Y38.256 E10.99907
G1 X35.999 Y37.887 E11.01188
G1 X36.611 Y37.588 E11.02469
G1 X37.253 Y37.363 E11.03748
G1 X37.918 Y37.214 E11.0503
G1 X38.849 Y37.139 E11.06787
G1 X61.151 Y37.139 E11.48739
G1 X61.831 Y37.179 E11.5002
G1 X62.501 Y37.298 E11.513
G1 X63.153 Y37.495 E11.52581
G1 X63.777 Y37.767 E11.53862
G1 X64.365 Y38.111 E11.55143
G1 X64.909 Y38.521 E11.56424
G1 X65.4 Y38.992 E11.57704
G1 X65.834 Y39.517 E11.58986
G1 X66.203 Y40.089 E11.60266
G1 X66.502 Y40.701 E11.61547
G1 X66.727 Y41.343 E11.62827
G1 X66.876 Y42.008 E11.64109
G1 X66.951 Y42.939 E11.65866
G1 X66.951 Y57.061 E11.9243
G1 X66.911 Y57.741 E11.93711
G1 X66.792 Y58.411 E11.94991
G1 X66.595 Y59.063 E11.96273
G1 X66.323 Y59.687 E11.97553
G1 X65.979 Y60.275 E11.98834
G1 X65.569 Y60.819 E12.00116
G1 X65.098 Y61.31 E12.01396
G1 X64.573 Y61.744 E12.02677
G1 X64.001 Y62.113 E12.03957
G1 X63.389 Y62.412 E12.05239
G1 X62.747 Y62.637 E12.06518
G1 X62.082 Y62.786 E12.078
G1 X61.151 Y62.861 E12.09557
G1 X38.849 Y62.861 E12.51509
G1 X38.169 Y62.821 E12.5279
G1 X37.499 Y62.702 E12.5407
G1 X36.847 Y62.505 E12.55351
G1 X36.223 Y62.233 E12.56632
G1 X35.635 Y61.889 E12.57913
G1 X35.091 Y61.479 E12.59194
G1 X34.6 Y61.008 E12.60474
G1 X34.166 Y60.483 E12.61755
G1 X33.797 Y59.911 E12.63036
G1 X33.498 Y59.299 E12.64317
G1 X33.273 Y58.657 E12.65597
G1 X33.124 Y57.992 E12.66879
G1 X33.049 Y57.061 E12.68636
G1 X33.049 Y42.939 E12.952
G1 X33.089 Y42.259 E12.96481
G1 X33.208 Y41.589 E12.97761
G1 X33.405 Y40.937 E12.99042
G1 X33.677 Y40.313 E13.00323
G1 X34.021 Y39.725 E13.01604
G1 X34.431 Y39.181 E13.02886
G1 X34.902 Y38.69 E13.04166
G0 F3600 X35.294 Y38.874
G1 F1800 X35.814 Y38.473 E13.05401
G1 X36.378 Y38.137 E13.06636
G1 X36.98 Y37.873 E13.07872
G1 X37.609 Y37.683 E13.09108
G1 X38.256 Y37.572 E13.10343
G1 X38.849 Y37.539 E13.1146
G1 X61.151 Y37.539 E13.53412
G1 X61.807 Y37.579 E13.54648
G1 X62.453 Y37.698 E13.55883
G1 X63.08 Y37.895 E13.5712
G1 X63.678 Y38.167 E13.58355
G1 X64.239 Y38.509 E13.59591
G1 X64.754 Y38.917 E13.60827
G1 X65.216 Y39.384 E13.62063
G1 X65.617 Y39.904 E13.63298
G1 X65.953 Y40.468 E13.64533
G1 X66.217 Y41.07 E13.6577
G1 X66.407 Y41.699 E13.67006
G1 X66.518 Y42.346 E13.6824
G1 X66.551 Y42.939 E13.69358
G1 X66.551 Y57.061 E13.95922
G1 X66.511 Y57.717 E13.97158
G1 X66.392 Y58.363 E13.98394
G1 X66.195 Y58.99 E13.9963
G1 X65.923 Y59.588 E14.00866
G1 X65.581 Y60.149 E14.02102
G1 X65.173 Y60.664 E14.03338
G1 X64.706 Y61.126 E14.04573
G1 X64.186 Y61.527 E14.05808
G1 X63.622 Y61.863 E14.07043
G1 X63.02 Y62.127 E14.0828
G1 X62.391 Y62.317 E14.09516
G1 X61.744 Y62.428 E14.10751
G1 X61.151 Y62.461 E14.11868
G1 X38.849 Y62.461 E14.53819
G1 X38.193 Y62.421 E14.55055
G1 X37.547 Y62.302 E14.56291
G1 X36.92 Y62.105 E14.57527
G1 X36.322 Y61.833 E14.58763
G1 X35.761 Y61.491 E14.59999
G1 X35.246 Y61.083 E14.61235
G1 X34.784 Y60.616 E14.62471
G1 X34.383 Y60.096 E14.63706
G1 X34.047 Y59.532 E14.64941
G1 X33.783 Y58.93 E14.66177
G1 X33.593 Y58.301 E14.67413
G1 X33.482 Y57.654 E14.68648
G1 X33.449 Y57.061 E14.69765
G1 X33.449 Y42.939 E14.96329
G1 X33.489 Y42.283 E14.97566
G1 X33.608 Y41.637 E14.98801
G1 X33.805 Y41.01 E15.00038
G1 X34.077 Y40.412 E15.01273
G1 X34.419 Y39.851 E15.02509
G1 X34.827 Y39.336 E15.03745
G1 X35.294 Y38.874 E15.04981
G0 F3600 X35.222 Y39.498
G1 F1800 X35.685 Y39.068 E15.06169
G1 X36.199 Y38.699 E15.0736
G1 X36.755 Y38.399 E15.08548
G1 X37.344 Y38.171 E15.09736
G1 X37.958 Y38.019 E15.10926
G1 X38.849 Y37.939 E15.12609
G1 X61.151 Y37.939 E15.5456
G1 X61.782 Y37.979 E15.55749
G1 X62.403 Y38.098 E15.56939
G1 X63.003 Y38.295 E15.58127
G1 X63.575 Y38.566 E15.59317
G1 X64.107 Y38.906 E15.60505
G1 X64.592 Y39.312 E15.61695
G1 X65.022 Y39.775 E15.62883
G1 X65.391 Y40.289 E15.64074
G1 X65.691 Y40.845 E15.65262
G1 X65.919 Y41.434 E15.6645
G1 X66.071 Y42.048 E15.6764
G1 X66.151 Y42.939 E15.69323
G1 X66.151 Y57.061 E15.95887
G1 X66.111 Y57.692 E15.97076
G1 X65.992 Y58.313 E15.98266
G1 X65.795 Y58.913 E15.99453
G1 X65.524 Y59.485 E16.00644
G1 X65.184 Y60.017 E16.01832
G1 X64.778 Y60.502 E16.03021
G1 X64.315 Y60.932 E16.0421
G1 X63.801 Y61.301 E16.054
G1 X63.245 Y61.601 E16.06589
G1 X62.656 Y61.829 E16.07777
G1 X62.042 Y61.981 E16.08967
G1 X61.151 Y62.061 E16.10649
G1 X38.849 Y62.061 E16.52601
G1 X38.218 Y62.021 E16.5379
G1 X37.597 Y61.902 E16.54979
G1 X36.997 Y61.705 E16.56167
G1 X36.425 Y61.434 E16.57358
G1 X35.893 Y61.094 E16.58546
G1 X35.408 Y60.688 E16.59735
G1 X34.978 Y60.225 E16.60924
G1 X34.609 Y59.711 E16.62114
G1 X34.309 Y59.155 E16.63303
G1 X34.081 Y58.566 E16.64491
G1 X33.929 Y57.952 E16.6568
G1 X33.849 Y57.061 E16.67363
G1 X33.849 Y42.939 E16.93927
G1 X33.889 Y42.308 E16.95117
G1 X34.008 Y41.687 E16.96306
G1 X34.205 Y41.087 E16.97494
G1 X34.476 Y40.515 E16.98685
G1 X34.816 Y39.983 E16.99872
G1 X35.222 Y39.498 E17.01062
G0 F3600 X35.616 Y39.667
G1 F1800 X36.074 Y39.27 E17.02202
G1 X36.581 Y38.937 E17.03343
G1 X37.127 Y38.673 E17.04484
G1 X37.703 Y38.484 E17.05624
G1 X38.299 Y38.372 E17.06765
G1 X38.849 Y38.339 E17.07802
G1 X61.151 Y38.339 E17.49753
G1 X61.756 Y38.379 E17.50893
G1 X62.35 Y38.498 E17.52033
G1 X62.924 Y38.694 E17.53174
G1 X63.467 Y38.965 E17.54315
G1 X63.97 Y39.304 E17.55456
G1 X64.423 Y39.706 E17.56596
G1 X64.82 Y40.164 E17.57736
G1 X65.153 Y40.671 E17.58877
G1 X65.417 Y41.217 E17.60018
G1 X65.606 Y41.793 E17.61158
G1 X65.718 Y42.389 E17.62299
G1 X65.751 Y42.939 E17.63335
G1 X65.751 Y57.061 E17.89899
G1 X65.711 Y57.666 E17.9104
G1 X65.592 Y58.26 E17.92179
G1 X65.396 Y58.834 E17.9332
G1 X65.125 Y59.377 E17.94462
G1 X64.786 Y59.88 E17.95603
G1 X64.384 Y60.333 E17.96742
G1 X63.926 Y60.73 E17.97882
G1 X63.419 Y61.063 E17.99023
G1 X62.873 Y61.327 E18.00164
G1 X62.297 Y61.516 E18.01304
G1 X61.701 Y61.628 E18.02445
G1 X61.151 Y61.661 E18.03482
G1 X38.849 Y61.661 E18.45433
G1 X38.244 Y61.621 E18.46573
G1 X37.65 Y61.502 E18.47713
G1 X37.076 Y61.306 E18.48854
G1 X36.533 Y61.035 E18.49996
G1 X36.03 Y60.696 E18.51137
G1 X35.577 Y60.294 E18.52276
G1 X35.18 Y59.836 E18.53416
G1 X34.847 Y59.329 E18.54557
G1 X34.583 Y58.783 E18.55698
G1 X34.394 Y58.207 E18.56838
G1 X34.282 Y57.611 E18.57979
G1 X34.249 Y57.061 E18.59015
G1 X34.249 Y42.939 E18.85579
G1 X34.289 Y42.334 E18.8672
G1 X34.408 Y41.74 E18.8786
G1 X34.604 Y41.166 E18.89001
G1 X34.875 Y40.623 E18.90142
G1 X35.214 Y40.12 E18.91283
G1 X35.616 Y39.667 E18.92422
G0 F3600 X36.009 Y39.845
G1 F1800 X36.462 Y39.483 E18.93513
G1 X36.96 Y39.188 E18.94602
G1 X37.494 Y38.963 E18.95692
G1 X38.054 Y38.815 E18.96781
G1 X38.849 Y38.739 E18.98284
G1 X61.151 Y38.739 E19.40235
G1 X61.729 Y38.779 E19.41325
G1 X62.296 Y38.898 E19.42415
G1 X62.841 Y39.094 E19.43504
G1 X63.354 Y39.363 E19.44594
G1 X63.825 Y39.7 E19.45683
G1 X64.245 Y40.099 E19.46773
G1 X64.607 Y40.552 E19.47864
